images/section-social-icons/linkedin_icon.svg

<svg width="70" height="70" viewBox="0 0 70 70" fill="none" xmlns="http://www.w3.org/2000/svg">
<path d="M58.3333 8.75H11.6667C10.8931 8.75 10.1513 9.05729 9.60427 9.60427C9.05729 10.1513 8.75 10.8931 8.75 11.6667V58.3333C8.75 59.1069 9.05729 59.8488 9.60427 60.3957C10.1513 60.9427 10.8931 61.25 11.6667 61.25H58.3333C59.1069 61.25 59.8488 60.9427 60.3957 60.3957C60.9427 59.8488 61.25 59.1069 61.25 58.3333V11.6667C61.25 10.8931 60.9427 10.1513 60.3957 9.60427C59.8488 9.05729 59.1069 8.75 58.3333 8.75V8.75ZM24.3221 53.4829H16.5287V28.4287H24.3221V53.4829ZM20.4254 25.0075C19.228 25.0075 18.0796 24.5318 17.2328 23.6851C16.3861 22.8384 15.9104 21.69 15.9104 20.4925C15.9104 19.295 16.3861 18.1466 17.2328 17.2999C18.0796 16.4532 19.228 15.9775 20.4254 15.9775C21.6229 15.9775 22.7713 16.4532 23.618 17.2999C24.4647 18.1466 24.9404 19.295 24.9404 20.4925C24.9404 21.69 24.4647 22.8384 23.618 23.6851C22.7713 24.5318 21.6229 25.0075 20.4254 25.0075V25.0075ZM53.4858 53.4829H45.7013V41.3C45.7013 38.395 45.6488 34.6588 41.6529 34.6588C37.5988 34.6588 36.9833 37.8263 36.9833 41.0958V53.4858H29.2046V28.4317H36.6713V31.8558H36.7792C37.8146 29.8871 40.3579 27.8104 44.1408 27.8104C52.0275 27.8104 53.4829 32.9963 53.4829 39.7454V53.4829H53.4858Z" fill="#CCCCCC"/>
</svg>

<svg width="70" height="70" fill="none" xmlns="http://www.w3.org/2000/svg"><path d="M58.333 8.75H11.667a2.917 2.917 0 0 0-2.917 2.917v46.666a2.916 2.916 0 0 0 2.917 2.917h46.666a2.916 2.916 0 0 0 2.917-2.917V11.667a2.917 2.917 0 0 0-2.917-2.917zm-34.01 44.733h-7.794V28.429h7.793v25.054zm-3.898-28.475a4.515 4.515 0 1 1 0-9.031 4.515 4.515 0 0 1 0 9.03zm33.06 28.475h-7.784V41.3c0-2.905-.052-6.641-4.048-6.641-4.054 0-4.67 3.167-4.67 6.437v12.39h-7.778V28.432h7.466v3.424h.108c1.036-1.969 3.579-4.046 7.362-4.046 7.887 0 9.342 5.186 9.342 11.935v13.738h.003z" fill="#CCC"/></svg>
